apps/pie-docs/src/assets/img/components/tag/size-large.svg

<svg width="69" height="24" viewBox="0 0 69 24" fill="none" xmlns="http://www.w3.org/2000/svg">
    <path
        d="M0 8C0 3.58172 3.58172 0 8 0H61C65.4183 0 69 3.58172 69 8V16C69 20.4183 65.4183 24 61 24H8C3.58172 24 0 20.4183 0 16V8Z"
        fill="#262626" />
    <g clip-path="url(#clip0_5739_3611)">
        <path fill-rule="evenodd" clip-rule="evenodd"
            d="M8.08276 4H23.9172L24 4.08276V19.9172L23.9172 20H8.08276L8 19.9172V4.08276L8.08276 4ZM23.8338 19.8338V4.1655H8.16549V19.8338H23.8338ZM11.2685 5H20.7315C21.9844 5 23 6.01565 23 7.26852V16.7315C23 17.9844 21.9844 19 20.7315 19H11.2685C10.0157 19 9 17.9844 9 16.7315V7.26852C9 6.01565 10.0157 5 11.2685 5Z"
            fill="white" />
    </g>
    <path
        d="M29.288 7.9H30.478V15.992H33.992V17H29.288V7.9ZM37.1828 17.168C36.8655 17.168 36.5715 17.1167 36.3008 17.014C36.0395 16.9113 35.8108 16.7667 35.6148 16.58C35.4188 16.3933 35.2648 16.174 35.1528 15.922C35.0501 15.6607 34.9988 15.376 34.9988 15.068C34.9988 14.4707 35.2135 13.99 35.6428 13.626C36.0721 13.262 36.6835 13.0567 37.4768 13.01L39.2968 12.898V12.408C39.2968 11.876 39.1661 11.4933 38.9048 11.26C38.6528 11.0173 38.2888 10.896 37.8128 10.896C37.4115 10.896 37.0661 10.9707 36.7768 11.12C36.4875 11.2693 36.2635 11.4327 36.1048 11.61L35.4328 10.938C35.6755 10.6393 36.0021 10.3967 36.4128 10.21C36.8328 10.014 37.3088 9.916 37.8408 9.916C38.3168 9.916 38.7181 9.98133 39.0448 10.112C39.3715 10.2333 39.6328 10.4013 39.8288 10.616C40.0341 10.8307 40.1788 11.0827 40.2628 11.372C40.3561 11.6613 40.4028 11.9693 40.4028 12.296V17H39.3528V15.824H39.2688C39.0821 16.244 38.8208 16.5753 38.4848 16.818C38.1488 17.0513 37.7148 17.168 37.1828 17.168ZM37.3508 16.216C37.9295 16.216 38.3961 16.048 38.7508 15.712C39.1148 15.3667 39.2968 14.9093 39.2968 14.34V13.738L37.5328 13.864C36.5995 13.9387 36.1328 14.3307 36.1328 15.04C36.1328 15.3947 36.2448 15.6793 36.4688 15.894C36.7021 16.1087 36.9961 16.216 37.3508 16.216ZM46.2128 17.168C45.9328 17.168 45.6621 17.1307 45.4008 17.056C45.1488 16.9813 44.9155 16.874 44.7008 16.734C44.4955 16.594 44.3135 16.4307 44.1548 16.244C44.0055 16.048 43.8888 15.8287 43.8048 15.586H43.7208V17H42.6568V6.85H43.7768V11.358H43.8608C44.0381 10.938 44.3321 10.5927 44.7428 10.322C45.1535 10.0513 45.6435 9.916 46.2128 9.916C46.6701 9.916 47.0855 10.0047 47.4588 10.182C47.8415 10.3593 48.1681 10.6113 48.4388 10.938C48.7095 11.2553 48.9148 11.638 49.0548 12.086C49.2041 12.5247 49.2788 13.0053 49.2788 13.528C49.2788 14.0507 49.2041 14.536 49.0548 14.984C48.9148 15.432 48.7095 15.8193 48.4388 16.146C48.1681 16.4633 47.8415 16.7153 47.4588 16.902C47.0855 17.0793 46.6701 17.168 46.2128 17.168ZM45.9328 16.16C46.2408 16.16 46.5255 16.1087 46.7868 16.006C47.0575 15.894 47.2908 15.7307 47.4868 15.516C47.6921 15.292 47.8508 15.0167 47.9628 14.69C48.0748 14.3633 48.1308 13.9807 48.1308 13.542C48.1308 13.1033 48.0748 12.7207 47.9628 12.394C47.8508 12.0673 47.6921 11.7967 47.4868 11.582C47.2908 11.358 47.0575 11.1947 46.7868 11.092C46.5255 10.98 46.2408 10.924 45.9328 10.924C45.6341 10.924 45.3541 10.98 45.0928 11.092C44.8315 11.1947 44.6028 11.358 44.4068 11.582C44.2108 11.7967 44.0568 12.0673 43.9448 12.394C43.8328 12.7207 43.7768 13.1033 43.7768 13.542C43.7768 13.9807 43.8328 14.3633 43.9448 14.69C44.0568 15.0167 44.2108 15.292 44.4068 15.516C44.6028 15.7307 44.8315 15.894 45.0928 16.006C45.3541 16.1087 45.6341 16.16 45.9328 16.16ZM53.7807 17.168C53.286 17.168 52.8333 17.084 52.4227 16.916C52.0213 16.748 51.676 16.51 51.3867 16.202C51.1067 15.8847 50.8873 15.502 50.7287 15.054C50.5793 14.606 50.5047 14.102 50.5047 13.542C50.5047 12.954 50.584 12.436 50.7427 11.988C50.9013 11.5307 51.1207 11.1527 51.4007 10.854C51.6807 10.546 52.012 10.3127 52.3947 10.154C52.7867 9.99533 53.216 9.916 53.6827 9.916C54.1493 9.916 54.5787 9.99067 54.9707 10.14C55.3627 10.2893 55.6987 10.5133 55.9787 10.812C56.2587 11.1013 56.478 11.47 56.6367 11.918C56.7953 12.3567 56.8747 12.87 56.8747 13.458C56.8747 13.5327 56.87 13.6073 56.8607 13.682C56.8607 13.7567 56.856 13.8173 56.8467 13.864H51.6247C51.6247 14.1907 51.6807 14.4987 51.7927 14.788C51.914 15.068 52.0727 15.3153 52.2687 15.53C52.474 15.7353 52.7073 15.8987 52.9687 16.02C53.2393 16.1413 53.5287 16.202 53.8367 16.202C54.3407 16.202 54.7513 16.104 55.0687 15.908C55.3953 15.712 55.666 15.474 55.8807 15.194L56.5527 15.88C56.254 16.272 55.8807 16.5847 55.4327 16.818C54.994 17.0513 54.4433 17.168 53.7807 17.168ZM53.6827 10.84C53.356 10.84 53.0667 10.9007 52.8147 11.022C52.5627 11.1433 52.3527 11.302 52.1847 11.498C52.0167 11.694 51.886 11.918 51.7927 12.17C51.7087 12.422 51.662 12.674 51.6527 12.926H55.6987C55.6893 12.674 55.638 12.422 55.5447 12.17C55.4607 11.918 55.3347 11.694 55.1667 11.498C54.9987 11.302 54.7887 11.1433 54.5367 11.022C54.294 10.9007 54.0093 10.84 53.6827 10.84ZM58.6802 6.85H59.8002V17H58.6802V6.85Z"
        fill="white" />
    <defs>
        <clipPath id="clip0_5739_3611">
            <rect width="16" height="16" fill="white" transform="translate(8 4)" />
        </clipPath>
    </defs>
</svg>

<svg width="126" height="24" fill="none" xmlns="http://www.w3.org/2000/svg"><path d="M0 8a8 8 0 0 1 8-8h53a8 8 0 0 1 8 8v8a8 8 0 0 1-8 8H8a8 8 0 0 1-8-8V8Z" fill="#262626"/><g clip-path="url(#size-large__a)"><path fill-rule="evenodd" clip-rule="evenodd" d="M8.083 4h15.834l.083.083v15.834l-.083.083H8.083L8 19.917V4.083L8.083 4Zm15.75 15.834V4.166H8.166v15.668h15.669ZM11.27 5h9.463A2.268 2.268 0 0 1 23 7.269v9.463A2.268 2.268 0 0 1 20.732 19h-9.463A2.269 2.269 0 0 1 9 16.732V7.269A2.269 2.269 0 0 1 11.268 5Z" fill="#fff"/></g><path d="M29.288 7.9h1.19v8.092h3.514V17h-4.704V7.9Zm7.895 9.268c-.318 0-.611-.051-.882-.154a2.047 2.047 0 0 1-1.148-1.092 2.315 2.315 0 0 1-.154-.854c0-.597.215-1.078.644-1.442.43-.364 1.04-.57 1.834-.616l1.82-.112v-.49c0-.532-.13-.915-.392-1.148-.252-.243-.616-.364-1.092-.364-.402 0-.747.075-1.036.224a2.32 2.32 0 0 0-.672.49l-.672-.672c.242-.299.57-.541.98-.728.42-.196.896-.294 1.428-.294.476 0 .877.065 1.204.196.326.121.588.29.784.504.205.215.35.467.434.756.093.29.14.597.14.924V17h-1.05v-1.176h-.084c-.187.42-.448.751-.784.994-.336.233-.77.35-1.302.35Zm.168-.952c.578 0 1.045-.168 1.4-.504.364-.345.546-.803.546-1.372v-.602l-1.764.126c-.934.075-1.4.467-1.4 1.176 0 .355.112.64.336.854.233.215.527.322.882.322Zm8.862.952c-.28 0-.55-.037-.812-.112a2.656 2.656 0 0 1-.7-.322 2.736 2.736 0 0 1-.546-.49 2.341 2.341 0 0 1-.35-.658h-.084V17h-1.064V6.85h1.12v4.508h.084c.177-.42.471-.765.882-1.036.41-.27.9-.406 1.47-.406.457 0 .873.089 1.246.266.383.177.71.43.98.756.27.317.476.7.616 1.148.15.439.224.92.224 1.442 0 .523-.075 1.008-.224 1.456-.14.448-.346.835-.616 1.162-.27.317-.597.57-.98.756a2.868 2.868 0 0 1-1.246.266Zm-.28-1.008c.308 0 .593-.051.854-.154a1.94 1.94 0 0 0 .7-.49c.205-.224.364-.5.476-.826.112-.327.168-.71.168-1.148 0-.439-.056-.821-.168-1.148a2.176 2.176 0 0 0-.476-.812 1.738 1.738 0 0 0-.7-.49 2.145 2.145 0 0 0-.854-.168 2.11 2.11 0 0 0-.84.168c-.262.103-.49.266-.686.49-.196.215-.35.485-.462.812-.112.327-.168.71-.168 1.148 0 .439.056.821.168 1.148.112.327.266.602.462.826.196.215.425.378.686.49.261.103.541.154.84.154Zm7.848 1.008a3.55 3.55 0 0 1-1.358-.252 2.983 2.983 0 0 1-1.036-.714c-.28-.317-.5-.7-.658-1.148a4.765 4.765 0 0 1-.224-1.512c0-.588.079-1.106.238-1.554a3.13 3.13 0 0 1 .658-1.134c.28-.308.611-.541.994-.7a3.401 3.401 0 0 1 1.288-.238 3.6 3.6 0 0 1 1.288.224c.392.15.728.373 1.008.672.28.29.499.658.658 1.106.158.439.238.952.238 1.54 0 .075-.005.15-.014.224a.963.963 0 0 1-.014.182h-5.222c0 .327.056.635.168.924.121.28.28.527.476.742.205.205.438.369.7.49.27.121.56.182.868.182.504 0 .914-.098 1.232-.294a2.87 2.87 0 0 0 .812-.714l.672.686a3.311 3.311 0 0 1-1.12.938c-.439.233-.99.35-1.652.35Zm-.098-6.328c-.327 0-.616.06-.868.182-.252.121-.462.28-.63.476-.168.196-.299.42-.392.672a2.685 2.685 0 0 0-.14.756h4.046a2.428 2.428 0 0 0-.154-.756 1.905 1.905 0 0 0-1.008-1.148 1.888 1.888 0 0 0-.854-.182Zm4.997-3.99h1.12V17h-1.12V6.85Z" fill="#fff"/><path d="M77 8a8 8 0 0 1 8-8h33a8 8 0 0 1 8 8v8a8 8 0 0 1-8 8H85a8 8 0 0 1-8-8V8Z" fill="#262626"/><path d="M86.288 7.9h1.19v8.092h3.514V17h-4.704V7.9Zm7.895 9.268c-.318 0-.612-.051-.882-.154a2.047 2.047 0 0 1-1.148-1.092 2.315 2.315 0 0 1-.154-.854c0-.597.215-1.078.644-1.442.43-.364 1.04-.57 1.834-.616l1.82-.112v-.49c0-.532-.13-.915-.392-1.148-.252-.243-.616-.364-1.092-.364-.401 0-.747.075-1.036.224a2.32 2.32 0 0 0-.672.49l-.672-.672c.242-.299.57-.541.98-.728.42-.196.896-.294 1.428-.294.476 0 .877.065 1.204.196.326.121.588.29.784.504.205.215.35.467.434.756.093.29.14.597.14.924V17h-1.05v-1.176h-.084c-.187.42-.448.751-.784.994-.336.233-.77.35-1.302.35Zm.168-.952c.579 0 1.045-.168 1.4-.504.364-.345.546-.803.546-1.372v-.602l-1.764.126c-.933.075-1.4.467-1.4 1.176 0 .355.112.64.336.854.233.215.527.322.882.322Zm8.862.952c-.28 0-.551-.037-.812-.112a2.645 2.645 0 0 1-.7-.322 2.698 2.698 0 0 1-.546-.49 2.323 2.323 0 0 1-.35-.658h-.084V17h-1.064V6.85h1.12v4.508h.084c.177-.42.471-.765.882-1.036.41-.27.9-.406 1.47-.406.457 0 .872.089 1.246.266.382.177.709.43.98.756.27.317.476.7.616 1.148.149.439.224.92.224 1.442 0 .523-.075 1.008-.224 1.456-.14.448-.346.835-.616 1.162a3.01 3.01 0 0 1-.98.756 2.871 2.871 0 0 1-1.246.266Zm-.28-1.008c.308 0 .592-.051.854-.154.27-.112.504-.275.7-.49.205-.224.364-.5.476-.826.112-.327.168-.71.168-1.148 0-.439-.056-.821-.168-1.148a2.18 2.18 0 0 0-.476-.812 1.743 1.743 0 0 0-.7-.49 2.147 2.147 0 0 0-.854-.168c-.299 0-.579.056-.84.168-.262.103-.49.266-.686.49-.196.215-.35.485-.462.812-.112.327-.168.71-.168 1.148 0 .439.056.821.168 1.148.112.327.266.602.462.826.196.215.424.378.686.49.261.103.541.154.84.154Zm7.848 1.008a3.55 3.55 0 0 1-1.358-.252 2.975 2.975 0 0 1-1.036-.714c-.28-.317-.5-.7-.658-1.148a4.748 4.748 0 0 1-.224-1.512c0-.588.079-1.106.238-1.554a3.13 3.13 0 0 1 .658-1.134 2.75 2.75 0 0 1 .994-.7 3.4 3.4 0 0 1 1.288-.238 3.6 3.6 0 0 1 1.288.224c.392.15.728.373 1.008.672.28.29.499.658.658 1.106.158.439.238.952.238 1.54 0 .075-.005.15-.014.224a.988.988 0 0 1-.014.182h-5.222c0 .327.056.635.168.924.121.28.28.527.476.742.205.205.438.369.7.49.27.121.56.182.868.182.504 0 .914-.098 1.232-.294.326-.196.597-.434.812-.714l.672.686a3.314 3.314 0 0 1-1.12.938c-.439.233-.99.35-1.652.35Zm-.098-6.328c-.327 0-.616.06-.868.182-.252.121-.462.28-.63.476-.168.196-.299.42-.392.672a2.685 2.685 0 0 0-.14.756h4.046a2.454 2.454 0 0 0-.154-.756 1.905 1.905 0 0 0-1.008-1.148 1.89 1.89 0 0 0-.854-.182Zm4.997-3.99h1.12V17h-1.12V6.85Z" fill="#fff"/><defs><clipPath id="size-large__a"><path fill="#fff" transform="translate(8 4)" d="M0 0h16v16H0z"/></clipPath></defs></svg>
